!!!COM: Bach, Johann Sebastian
!!!CDT: 1685/3//-1750/7/28/
!!!OTL@@DE: Herr Gott, dich loben alle wir
!!!AGN: 4-Part Chorale
!!!SCT: BH 164
!!!SCT: BWV 326
**harm	**root	**kern	**kern	**kern	**kern
!	!	!bass	!tenor	!alto	!soprno
*	*Iorgan	*Iorgan	*Iorgan	*Iorgan	*Iorgan
*	*	*clefF4	*clefF4	*clefG2	*clefG2
*k[f#c#]	*k[f#c#]	*k[f#c#]	*k[f#c#]	*k[f#c#]	*k[f#c#]
*D:	*D:	*D:	*D:	*D:	*D:
*M3/4	*M3/4	*M3/4	*M3/4	*M3/4	*M3/4
*MM60	*MM60	*MM60	*MM60	*MM60	*MM60
I	4BB-	8D	4f#	4a	4dd
.	.	8C#	.	.	.
=1	=1	=1	=1	=1	=1
vi	2GG	8BB	2f#	2b	2dd
.	.	8C#	.	.	.
.	.	8D	.	.	.
.	.	8E	.	.	.
I7	4BB-	8F#	4f#	4a	4cc#
.	.	8D	.	.	.
=2	=2	=2	=2	=2	=2
IV	2EE-	8G	2d	2g	2b
.	.	8A	.	.	.
.	.	8B	.	.	.
.	.	8c#	.	.	.
I	4BB-	8d	4d	4f#	4a
.	.	8c#	.	.	.
=3	=3	=3	=3	=3	=3
vi	4GG	8B	2d	4f#	4dd
.	.	8A	.	.	.
V7b/V	4CC	8G	.	4b	2ee
.	.	8F#	.	.	.
V7d	4FF	8G	4c#	4a	.
.	.	8A	.	.	.
=4	=4	=4	=4	=4	=4
I;	2BB-;	2D;	2d;	2a;	2ff#;
V/VI	4DD	4AA#	4c#	4cc#	4ff#
=5	=5	=5	=5	=5	=5
vi	2.GG	8BB	2d	2b	2ff#
.	.	8F#	.	.	.
.	.	8B	.	.	.
.	.	8A	.	.	.
.	.	8G	4d	4b	4ff#
.	.	8F#	.	.	.
=6	=6	=6	=6	=6	=6
IV7	4EE-	8G	4d	4b	2ee
.	.	8E	.	.	.
V	4FF	8A	4c#	4a	.
.	.	8G	.	.	.
Ib	4BB-	8F#	4d	4a	4ff#
.	.	8E	.	.	.
=7	=7	=7	=7	=7	=7
V7b	4FF	8D	4e	4a	4gg
.	.	8C#	.	.	.
I	2BB-	8D	2d	2a	2ff#
.	.	8E	.	.	.
.	.	8F#	.	.	.
.	.	8G	.	.	.
!!linebreak: 2
=8	=8	=8	=8	=8	=8
V;	2FF;	2A;	2c#;	2a;	2ee;
vi	4GG	4B	4f#	4b	4dd
=9	=9	=9	=9	=9	=9
V	2FF	8c#	2e	2a	2ee
.	.	8A	.	.	.
.	.	8B	.	.	.
.	.	8c#	.	.	.
vi7	4GG	8d	4d	8a	4ff#
.	.	8B	.	8dd	.
=10	=10	=10	=10	=10	=10
ii7	4CC	8G	4d	4b	2ee
.	.	8F#	.	.	.
V7d	4FF	8G	4c#	8a	.
.	.	8A	.	8g	.
vi	4GG	8B	4d	4f#	4dd
.	.	8F#	.	.	.
=11	=11	=11	=11	=11	=11
IV	4EE-	8G	8d	4b	4b
.	.	8D	8f#	.	.
vii7D	4AA	8E	4g	4b	2cc#
.	.	8C#	.	.	.
V/VI	4DD	8F#	4f#	4a#	.
.	.	8FF#	.	.	.
=12	=12	=12	=12	=12	=12
vi;	2GG;	2BB;	2f#;	2b;	2dd;
Vb	4FF	4c#	4e	4a	4aa
=13	=13	=13	=13	=13	=13
I	2BB-	8d	2f#	2a	2ff#
.	.	8e	.	.	.
.	.	8d	.	.	.
.	.	8c#	.	.	.
vi	4GG	8B	4f#	4b	4dd
.	.	8A	.	.	.
=14	=14	=14	=14	=14	=14
V7d	2FF	8G	2c#	2a	2ee
.	.	8B	.	.	.
.	.	8A	.	.	.
.	.	8G	.	.	.
iii7	4DD	8F#	4c#	4a	4gg
.	.	8E	.	.	.
=15	=15	=15	=15	=15	=15
I	4BB-	8D	2d	4a	4ff#
.	.	8F#	.	.	.
ii7b	4CC	8G	.	4b	2ee
.	.	8E	.	.	.
V7	4FF	8A	4c#	8a	.
.	.	8AA	.	8g	.
=16	=16	=16	=16	=16	=16
I;	2BB-;	2D;	2A;	2f#;	2dd;
==	==	==	==	==	==
*-	*-	*-	*-	*-	*-
!!chor2scor: -l 2 -s 0.6 -o %b.pmx
!!!YEC: Copyright 2003 by Craig Stuart Sapp
!!!license: GNU General Public License (http://www.gnu.org/copyleft/gpl.html)
!!!SMA: 371 Bach Chorales, edited by Ludwig Erk, C.F. Peters
!!!PDT: 1850, 1865
